X: 15
T:A Northan Frisk
M:6/4
L:1/4
S:Wright 1713
K:G
g|B/c/dBgB/c/d|BG/A/B/G/AaA|aAabGF|E(c2c2)d|eB/c/d/B/cAa|f/g/afgBc|BDCB,
GA,|G,G2G2||
d|dB/c/d/B/cAa|bd=feab|af/g/a/f/bea|f(c2c2)B|cecBG/A/B/G/|Ec/B/cDCB,|GB,
A,
GA,
B,|G,G2G2||
